!!!COM: Mozart, Wolfgang Amadeus
!!!OTL: Musikalische Würfelspiele, Kontre-Tänze
!!!SCA: K<sup>6</sup> Anh. C30.01 (K<sup>3</sup> Anh. 294d)
**kern	**kern
*staff2	*staff2
*clefF4	*clefG2
*M2/4	*M2/4
*MM110	*MM110
*>[A,A1,A,A2,B]	*>[A,A1,A,A2,B]
*>norep[A,A2,B]	*>norep[A,A2,B]
*>A	*>A
=165	=165
4C	8cc
.	16ee
.	16cc
4r	8g
.	8g
=152	=152
4C	8gg
.	16ccc
.	16gg
4r	8ee
.	8cc
=131	=131
16GG	8ff
16D	.
16BB	4dd
16D	.
16GG	.
16D	.
16BB	8b
16D	.
=121	=121
4C	8cc
.	16ee
.	16cc
4GG	4g
=117	=117
16D	8aa
16A	.
16F#	4ff#
16A	.
16D	.
16A	.
16F#	8dd
16A	.
=140	=140
16D	8gg
16B	.
16G	4dd
16B	.
16D	.
16B	.
16G	8b
16B	.
=18	=18
4C	8ee
.	8cc
4D	8b
.	8a
=115	=115
*>A1	*>A1
4GG	4g 4b 4gg
16G	4r
16F	.
16E	.
16D	.
=115:|!	=115:|!
*>A2	*>A2
4GG	4g 4b 4gg
16GG	4r
16AA	.
16BB	.
16C#	.
=136||	=136||
*>B	*>B
4D	8dd
.	16ff#
.	16aa
4F#	8ddd
.	8ddd
=79	=79
4BB 4G	8gg
.	16bb
.	16gg
4GG	8dd
.	16gg
.	16dd
=26	=26
4C	8ee
.	8cc
4C	8gg
.	8ee
=9	=9
4GG	8dd
.	8b
16G	4g
16F	.
16E	.
16D	.
=94	=94
16C	8cc
16E	.
16G	8ee
16E	.
16C	8gg
16E	.
16G	8ee
16E	.
=101	=101
16C	8gg
16G	.
16E	4ee
16G	.
16C	.
16G	.
16E	8cc
16G	.
=96	=96
16G	8dd
16D	.
16BB	8dd
16GG	.
16G	8b
16D	.
16BB	8b
16GG	.
=171	=171
4C	4cc
4CC	4c
==	==
*-	*-
